src/assets/images/eyes/25.svg

<svg width="32" height="32" viewBox="0 0 32 32" fill="none" xmlns="http://www.w3.org/2000/svg">
<path d="M10.5002 15.5C10.5002 15.5 7.49998 15 5.4501 12.6342C3.35976 10.2217 5.31118 6.7673 9.00012 8.50002C10.5771 5.92775 14.4903 6.87914 13.97 10C13.4698 13 10.5002 15.5 10.5002 15.5Z" fill="url(#paint0_radial_23_456)"/>
<path d="M19.5172 15.5C19.5172 15.5 22.5174 15 24.5672 12.6342C26.6576 10.2217 24.7062 6.7673 21.0172 8.50002C19.4402 5.92775 15.527 6.87914 16.0473 10C16.5475 13 19.5172 15.5 19.5172 15.5Z" fill="url(#paint1_radial_23_456)"/>
<path d="M10.5928 14.2704C9.54671 13.9405 7.7854 13.1917 6.43594 11.6342C4.3456 9.22172 6.29702 5.7673 9.98596 7.50002C11.5629 4.92775 15.4761 5.87914 14.9558 9C14.6074 11.0898 13.0607 12.937 12.1542 13.8655C11.745 14.2846 11.1514 14.4466 10.5928 14.2704Z" fill="url(#paint2_linear_23_456)"/>
<path d="M21.4104 14.2704C22.4565 13.9405 24.2178 13.1917 25.5672 11.6342C27.6576 9.22172 25.7062 5.7673 22.0172 7.50002C20.4402 4.92775 16.527 5.87914 17.0473 9C17.3957 11.0898 18.9425 12.937 19.849 13.8655C20.2582 14.2846 20.8518 14.4466 21.4104 14.2704Z" fill="url(#paint3_linear_23_456)"/>
<ellipse cx="9.43198" cy="9.31066" rx="1.5" ry="3" transform="rotate(-45 9.43198 9.31066)" fill="url(#paint4_radial_23_456)"/>
<ellipse cx="20.9192" cy="9.19846" rx="2" ry="3" transform="rotate(-12.9659 20.9192 9.19846)" fill="url(#paint5_radial_23_456)"/>
<circle cx="13.0784" cy="7.62382" r="1.5" transform="rotate(45 13.0784 7.62382)" fill="url(#paint6_radial_23_456)"/>
<ellipse cx="24.3713" cy="8.62382" rx="1" ry="2" transform="rotate(45 24.3713 8.62382)" fill="url(#paint7_radial_23_456)"/>
<defs>
<radialGradient id="paint0_radial_23_456" cx="0" cy="0" r="1" gradientUnits="userSpaceOnUse" gradientTransform="translate(14 14) rotate(-155.376) scale(13.2004 5.48694)">
<stop stop-color="#CC7521"/>
<stop offset="1" stop-color="#E6872B" stop-opacity="0"/>
</radialGradient>
<radialGradient id="paint1_radial_23_456" cx="0" cy="0" r="1" gradientUnits="userSpaceOnUse" gradientTransform="translate(20 11) rotate(122.005) scale(4.71699)">
<stop stop-color="#EC812A"/>
<stop offset="1" stop-color="#FBA84C" stop-opacity="0"/>
</radialGradient>
<linearGradient id="paint2_linear_23_456" x1="12.9858" y1="7" x2="9.98584" y2="14" gradientUnits="userSpaceOnUse">
<stop stop-color="#CA0B4A"/>
<stop offset="1" stop-color="#F70A8D"/>
</linearGradient>
<linearGradient id="paint3_linear_23_456" x1="24" y1="7" x2="19" y2="15" gradientUnits="userSpaceOnUse">
<stop stop-color="#CA0B4A"/>
<stop offset="1" stop-color="#F70A8D"/>
</linearGradient>
<radialGradient id="paint4_radial_23_456" cx="0" cy="0" r="1" gradientUnits="userSpaceOnUse" gradientTransform="translate(9.43198 9.31066) rotate(90) scale(3.10148 1.5764)">
<stop stop-color="#EC6686"/>
<stop offset="1" stop-color="#EC6686" stop-opacity="0"/>
</radialGradient>
<radialGradient id="paint5_radial_23_456" cx="0" cy="0" r="1" gradientUnits="userSpaceOnUse" gradientTransform="translate(21.0425 9.02318) rotate(81.1645) scale(2.69258 1.82475)">
<stop stop-color="#EC6686"/>
<stop offset="0.259696" stop-color="#EC6686"/>
<stop offset="1" stop-color="#EC6686" stop-opacity="0"/>
</radialGradient>
<radialGradient id="paint6_radial_23_456" cx="0" cy="0" r="1" gradientUnits="userSpaceOnUse" gradientTransform="translate(13.0784 7.62382) rotate(90) scale(1.5)">
<stop stop-color="#EC6686"/>
<stop offset="1" stop-color="#EC6686" stop-opacity="0"/>
</radialGradient>
<radialGradient id="paint7_radial_23_456" cx="0" cy="0" r="1" gradientUnits="userSpaceOnUse" gradientTransform="translate(24.3713 8.62382) rotate(90) scale(2 1)">
<stop stop-color="#EC6686"/>
<stop offset="1" stop-color="#EC6686" stop-opacity="0"/>
</radialGradient>
</defs>
</svg>

<svg width="32" height="32" fill="none" xmlns="http://www.w3.org/2000/svg"><path d="M10.5 15.5s-3-.5-5.05-2.866C3.36 10.222 5.311 6.767 9 8.5c1.577-2.572 5.49-1.62 4.97 1.5-.5 3-3.47 5.5-3.47 5.5z" fill="url(#a)"/><path d="M19.517 15.5s3-.5 5.05-2.866c2.09-2.412.14-5.867-3.55-4.134-1.577-2.572-5.49-1.62-4.97 1.5.5 3 3.47 5.5 3.47 5.5z" fill="url(#b)"/><path d="M10.593 14.27c-1.046-.33-2.808-1.078-4.157-2.636-2.09-2.412-.139-5.867 3.55-4.134 1.577-2.572 5.49-1.62 4.97 1.5-.349 2.09-1.895 3.937-2.802 4.866-.409.419-1.003.58-1.561.404z" fill="url(#c)"/><path d="M21.41 14.27c1.046-.33 2.808-1.078 4.157-2.636 2.09-2.412.14-5.867-3.55-4.134-1.577-2.572-5.49-1.62-4.97 1.5.349 2.09 1.895 3.937 2.802 4.866.41.419 1.003.58 1.561.404z" fill="url(#d)"/><ellipse cx="9.432" cy="9.311" rx="1.5" ry="3" transform="rotate(-45 9.432 9.31)" fill="url(#e)"/><ellipse cx="20.919" cy="9.198" rx="2" ry="3" transform="rotate(-12.966 20.92 9.198)" fill="url(#f)"/><circle cx="13.078" cy="7.624" r="1.5" transform="rotate(45 13.078 7.624)" fill="url(#g)"/><ellipse cx="24.371" cy="8.624" rx="1" ry="2" transform="rotate(45 24.371 8.624)" fill="url(#h)"/><defs><radialGradient id="a" cx="0" cy="0" r="1" gradientUnits="userSpaceOnUse" gradientTransform="matrix(-11.99998 -5.5001 2.2862 -4.98797 14 14)"><stop stop-color="#CC7521"/><stop offset="1" stop-color="#E6872B" stop-opacity="0"/></radialGradient><radialGradient id="b" cx="0" cy="0" r="1" gradientUnits="userSpaceOnUse" gradientTransform="rotate(122.005 6.952 11.043) scale(4.71699)"><stop stop-color="#EC812A"/><stop offset="1" stop-color="#FBA84C" stop-opacity="0"/></radialGradient><radialGradient id="e" cx="0" cy="0" r="1" gradientUnits="userSpaceOnUse" gradientTransform="matrix(0 3.10148 -1.5764 0 9.432 9.31)"><stop stop-color="#EC6686"/><stop offset="1" stop-color="#EC6686" stop-opacity="0"/></radialGradient><radialGradient id="f" cx="0" cy="0" r="1" gradientUnits="userSpaceOnUse" gradientTransform="rotate(81.165 5.254 16.795) scale(2.69258 1.82475)"><stop stop-color="#EC6686"/><stop offset=".26" stop-color="#EC6686"/><stop offset="1" stop-color="#EC6686" stop-opacity="0"/></radialGradient><radialGradient id="g" cx="0" cy="0" r="1" gradientUnits="userSpaceOnUse" gradientTransform="matrix(0 1.5 -1.5 0 13.078 7.624)"><stop stop-color="#EC6686"/><stop offset="1" stop-color="#EC6686" stop-opacity="0"/></radialGradient><radialGradient id="h" cx="0" cy="0" r="1" gradientUnits="userSpaceOnUse" gradientTransform="matrix(0 2 -1 0 24.371 8.624)"><stop stop-color="#EC6686"/><stop offset="1" stop-color="#EC6686" stop-opacity="0"/></radialGradient><linearGradient id="c" x1="12.986" y1="7" x2="9.986" y2="14" gradientUnits="userSpaceOnUse"><stop stop-color="#CA0B4A"/><stop offset="1" stop-color="#F70A8D"/></linearGradient><linearGradient id="d" x1="24" y1="7" x2="19" y2="15" gradientUnits="userSpaceOnUse"><stop stop-color="#CA0B4A"/><stop offset="1" stop-color="#F70A8D"/></linearGradient></defs></svg>
